X: 959
T: the Rambling Rake   #2
T: an racaire fana\'c
O: Ireland
R: reel, long dance, set dance
%S: s:3 b:18(6+6+6)
B: Francis O'Neill: "The Dance Music of Ireland" (1907) #959
Z: Frank Nordberg - http://www.musicaviva.com
F: http://www.musicaviva.com/abc/tunes/ireland/oneill-1001/0959/oneill-1001-0959-1.abc
%m: Tn = (3n/o/n/
M: C
L: 1/8
K: Ador
"^A"[|] E2 |:\
AGAB cBcd | efec d2(ge) |\
[1,3 (3ddd ge (3ddd ge | dcBA G2G2 :|\
[2-4 dBGB dedB | c2A2 A2 :|
"^B"[|] d2 |\
efec d2g2 | efec d2g2 |\
(3ffg af dgg2 | (3ffg af d2(ga) ||\
bagf efga | bagf efga |
baga bagf | (Ted)ef g2 ||\
(fg) |\
efec d2g2 | efed c2(Bc) |\
ABcd gfge | dcBA G2"^->A2"G2 |]
